src/img/decor/cont_vec.svg

<svg xmlns="http://www.w3.org/2000/svg" width="3424" height="3424" fill="none">
  <g stroke="#fff" opacity=".2">
    <path d="M1904.33 230.409c126.56 115.102 230.12 230.198 307.83 365.365l-166.34 407.466c-25.95-106.337-63.44-235.355-135.23-335.839l-.4-.553-.41.542c-267.89 354.36-334.13 714.56-236.15 1152.5l-298.71 103.33c-74.85-310.95-74.87-610.36 31.57-918.37l.21-.63-.66-.03c-109.56-5.796-247.93 11.46-357.49 51.8l-.24.09-.07.25c-37.43 135.45-54.697 273.82-43.13 371.89l.06.53.52-.1c63.21-11.47 129.27-20.08 198.18-20.11-8.54 100.48-5.64 195.25 11.55 287.17-218.812 5.78-397.4 57.65-607.595 181.42l-.576.34.488.46c89.107 83.36 212.55 149.53 330.376 192.8l-367.339 149.15c-149.582-103.62-270.455-235.97-371.222-388.45 161.194-143.85 333.893-253.16 518.1-322.2l.345-.13-.022-.37c-14.465-244.8 11.393-426.21 117.845-665.186 221.71-106.462 434.79-152.457 699.73-123.589l.33.035.16-.285c106.45-187.077 224.43-333.887 368.29-489.296Z"/>
    <path d="m1573.31 2520.65.2.19.27-.07 757.78-187.09.29-.07.07-.3 181.33-763.54.06-.27-.19-.2-187.35-187.35-.6-.59-.23.81-215.84 734.45-731.58 218.72-.83.25.63.59 195.99 184.47Zm-552.87-133.55c-91.933-11.52-212.426-28.77-321.588-85.96l1165.838-434.4.21-.08.08-.22c143.83-402.99 247.43-690.94 417.03-1125.314 8.74 23.469 24.3 70.203 38.46 118.332 14.43 48.995 27.39 99.381 30.28 128.143l.01.177.13.127 432.34 432.335c25.83 25.83 37.3 60.24 28.71 97.51v.01c-36.43 163.44-65.9 319.92-95.23 475.66l-5.85 31.11c-31.3 166.03-62.95 331.7-103.24 504.57v.02l-.01.03c-5.72 45.88-37.24 77.4-80.26 85.99l-994.04 198.55v.01c-34.46 5.73-68.86-.03-97.54-28.71h-.01l-415.04-397.76-.12-.11-.16-.02Z"/>
  </g>
</svg>

<svg width="3424" height="3424" viewBox="0 0 3424 3424" fill="none" xmlns="http://www.w3.org/2000/svg">
<g opacity="0.2">
<path d="M1904.33 230.409C2030.89 345.511 2134.45 460.607 2212.16 595.774L2045.82 1003.24C2019.87 896.903 1982.38 767.885 1910.59 667.401L1910.19 666.848L1909.78 667.39C1641.89 1021.75 1575.65 1381.95 1673.63 1819.89L1374.92 1923.22C1300.07 1612.27 1300.05 1312.86 1406.49 1004.85L1406.7 1004.22L1406.04 1004.19C1296.48 998.394 1158.11 1015.65 1048.55 1055.99L1048.31 1056.08L1048.24 1056.33C1010.81 1191.78 993.543 1330.15 1005.11 1428.22L1005.17 1428.75L1005.69 1428.65C1068.9 1417.18 1134.96 1408.57 1203.87 1408.54C1195.33 1509.02 1198.23 1603.79 1215.42 1695.71C996.608 1701.49 818.02 1753.36 607.825 1877.13L607.249 1877.47L607.737 1877.93C696.844 1961.29 820.287 2027.46 938.113 2070.73L570.774 2219.88C421.192 2116.26 300.319 1983.91 199.552 1831.43C360.746 1687.58 533.445 1578.27 717.652 1509.23L717.997 1509.1L717.975 1508.73C703.51 1263.93 729.368 1082.52 835.82 843.544C1057.53 737.082 1270.61 691.087 1535.55 719.955L1535.88 719.99L1536.04 719.705C1642.49 532.628 1760.47 385.818 1904.33 230.409Z" stroke="white"/>
<path d="M1573.31 2520.65L1573.51 2520.84L1573.78 2520.77L2331.56 2333.68L2331.85 2333.61L2331.92 2333.31L2513.25 1569.77L2513.31 1569.5L2513.12 1569.3L2325.77 1381.95L2325.17 1381.36L2324.94 1382.17L2109.1 2116.62L1377.52 2335.34L1376.69 2335.59L1377.32 2336.18L1573.31 2520.65ZM1020.44 2387.1C928.507 2375.58 808.014 2358.33 698.852 2301.14L1864.69 1866.74L1864.9 1866.66L1864.98 1866.44C2008.81 1463.45 2112.41 1175.5 2282.01 741.126C2290.75 764.595 2306.31 811.329 2320.47 859.458C2334.9 908.453 2347.86 958.839 2350.75 987.601L2350.76 987.778L2350.89 987.905L2783.23 1420.24C2809.06 1446.07 2820.53 1480.48 2811.94 1517.75L2811.94 1517.76C2775.51 1681.2 2746.04 1837.68 2716.71 1993.42C2714.76 2003.79 2712.81 2014.16 2710.86 2024.53C2679.56 2190.56 2647.91 2356.23 2607.62 2529.1L2607.62 2529.12L2607.61 2529.15C2601.89 2575.03 2570.37 2606.55 2527.35 2615.14L1533.31 2813.69C1533.31 2813.7 1533.31 2813.7 1533.31 2813.7C1498.85 2819.43 1464.45 2813.67 1435.77 2784.99L1435.76 2784.99L1020.72 2387.23L1020.6 2387.12L1020.44 2387.1Z" stroke="white"/>
</g>
</svg>
